X: 92
T: Tom and His Friend
N: Copyright, 1916, by The Cable Company
C: words: Mary Blake:
C: music: J. H.
%R: air, waltz
B: "The Everyday Song Book", 1927
F: http://www.library.pitt.edu/happybirthday/pdf/The_Everyday_Song_Book.pdf
Z: 2017 John Chambers <jc:trillian.mit.edu>
M: 3/4
L: 1/4
K: F
% - - - - - - - - - - - - - - - - - - - - - - - - - - - - -
|: c c A | c c A | B c d | c3 | A A F | A A F |
w: 1.~Lit-tle pink Pig-gy-wig lives in the yard,     Lambs in the mead-ow with
w:    Dick-y-bird lives in the top of a tree,        Fish-y-wish down in the
w: 2.~Pig-gy-wig roots with his queer lit-tle snout, Lamb-kin goes run-ning and
w:    Dick-y-bird sings in the top of his tree,      Fish-y-wish swims miles and
%
G F E F3 :| G G A | F G A | B B c | A3 |
w: Rov-er on guard; | Pol-ly-wog lives in a lit-tle brown pool;
w: depths of the sea; | ~ ~ ~ | ~ ~ ~ | ~ ~ ~ | ~ |
w: frisk-ing a-bout; | Pol-ly-wog kicks all day long in his pool;
w: miles in the sea; | ~ ~ ~ | ~ ~ ~ | ~ ~ ~ | ~ |
%
F A c | f e d | c B G | F3 |]
w: I have a home, but they send me to school.
w: I am a child,  and they send me to school.
% - - - - - - - - - - - - - - - - - - - - - - - - - - - - -
